src/components/atoms/Icon/icons/favourite-dark-regular.svg

<svg width="24" height="24" xmlns="http://www.w3.org/2000/svg" xmlns:xlink="http://www.w3.org/1999/xlink"><defs><path d="M10 18.35l-1.45-1.32C3.4 12.36 0 9.28 0 5.5 0 2.42 2.42 0 5.5 0 7.24 0 8.91.81 10 2.09 11.09.81 12.76 0 14.5 0 17.58 0 20 2.42 20 5.5c0 3.78-3.4 6.86-8.55 11.54L10 18.35z" id="favourite-dark-regular-a"/></defs><g fill="none" fill-rule="evenodd"><use fill="currentColor" fill-rule="nonzero" xlink:href="#favourite-dark-regular-a" transform="translate(2 3)"/><path d="M16.5 3c-1.74 0-3.41.81-4.5 2.09C10.91 3.81 9.24 3 7.5 3 4.42 3 2 5.42 2 8.5c0 3.78 3.4 6.86 8.55 11.54L12 21.35l1.45-1.32C18.6 15.36 22 12.28 22 8.5 22 5.42 19.58 3 16.5 3zm-4.4 15.55l-.1.1-.1-.1C7.14 14.24 4 11.39 4 8.5 4 6.5 5.5 5 7.5 5c1.54 0 3.04.99 3.57 2.36h1.87C13.46 5.99 14.96 5 16.5 5c2 0 3.5 1.5 3.5 3.5 0 2.89-3.14 5.74-7.9 10.05z" fill="#FFF" fill-rule="nonzero"/></g></svg>

<?xml version="1.0" encoding="UTF-8"?>
<svg width="24px" height="24px" viewBox="0 0 24 24" version="1.1" xmlns="http://www.w3.org/2000/svg" xmlns:xlink="http://www.w3.org/1999/xlink">
    <!-- Generator: Sketch 52.2 (67145) - http://www.bohemiancoding.com/sketch -->
    <title>Icon/24/Favorite-fill-dark</title>
    <desc>Created with Sketch.</desc>
    <defs>
        <path d="M10,18.35 L8.55,17.03 C3.4,12.36 0,9.28 0,5.5 C0,2.42 2.42,0 5.5,0 C7.24,0 8.91,0.81 10,2.09 C11.09,0.81 12.76,0 14.5,0 C17.58,0 20,2.42 20,5.5 C20,9.28 16.6,12.36 11.45,17.04 L10,18.35 Z" id="path-favourite-dark-bg"></path>
    </defs>
    <g id="Icon/24/Favorite-fill-dark" stroke="none" stroke-width="1" fill="none" fill-rule="evenodd">
        <g id="Favorite-fill" transform="translate(2.000000, 3.000000)">
            <mask id="mask-2" fill="white">
                <use xlink:href="#path-favourite-dark-bg"></use>
            </mask>
            <use id="Mask" fill="currentColor" fill-rule="nonzero" xlink:href="#path-favourite-dark-bg"></use>
        </g>
        <path d="M16.5,3 C14.76,3 13.09,3.81 12,5.09 C10.91,3.81 9.24,3 7.5,3 C4.42,3 2,5.42 2,8.5 C2,12.28 5.4,15.36 10.55,20.04 L12,21.35 L13.45,20.03 C18.6,15.36 22,12.28 22,8.5 C22,5.42 19.58,3 16.5,3 Z M12.1,18.55 L12,18.65 L11.9,18.55 C7.14,14.24 4,11.39 4,8.5 C4,6.5 5.5,5 7.5,5 C9.04,5 10.54,5.99 11.07,7.36 L12.94,7.36 C13.46,5.99 14.96,5 16.5,5 C18.5,5 20,6.5 20,8.5 C20,11.39 16.86,14.24 12.1,18.55 Z" id="Mask" fill="#FFFFFF" fill-rule="nonzero"></path>
    </g>
</svg>
